content/boundary/v0.10.x/img/hero-pattern.svg

<svg xmlns="http://www.w3.org/2000/svg" width="664" height="576" fill="none" viewBox="0 0 664 576" xmlns:xlink="http://www.w3.org/1999/xlink">
  <g clip-path="url(#a)">
    <path fill="#EC585D" fill-opacity=".5" d="M247.437 191.681h3.126L442.667 80.769v-1.804L247.675 191.543zm-18.206-.138L442.667 68.316v1.804L232.119 191.681h-3.126zm55.333 0 158.103-91.281v1.804l-155.216 89.615h-3.125zm-18.444 0 176.547-101.93v1.804l-173.66 100.264h-3.125zm36.889 0 139.658-80.632v1.804l-136.771 78.966h-3.126zm18.444 0 121.214-69.984v1.804L324.34 191.681h-3.125z"/>
  </g>
  <g fill="#EC585D" fill-opacity=".5" clip-path="url(#b)">
    <path d="m442.804 165.87 44.719 25.811h3.12l-47.839-27.622zm0-10.652 63.161 36.463h3.126l-66.287-38.268zm0 21.298 26.271 15.165h3.126l-29.397-16.97zm0 10.652 7.822 4.513h3.131l-10.953-6.324zm103.178 4.513-102.939-59.428-.239-.138v1.805l100.052 57.761zm-103.178-47.109 81.604 47.109h3.125l-84.49-48.782-.239-.138zm157.963-80.541.238-.137-47.283-27.301-.389-.223-110.666 63.888v1.805L553.333 38.17l44.547 25.724L542.785 95.7l-.238.138L663.92 165.91l.08.046v-1.805L545.672 95.838zm18.448 0 .238-.137-65.731-37.953-.389-.223-110.666 63.894v1.805l110.666-63.893 62.995 36.37L561.233 95.7l-.238.138 102.925 59.427.08.046v-1.805l-99.88-57.668zm-36.89 0 .237-.137-29.229-16.878-110.666 63.893v1.806l110.666-63.893 26.105 15.072L524.342 95.7l-.238.138 139.816 80.725.08.046v-1.805L527.229 95.838zm55.333 0 .238-.137-84.174-48.6-.389-.222L442.667 78.96v1.806l110.666-63.894 81.438 47.022L579.675 95.7l-.237.138 84.482 48.776.08.046v-1.806l-81.438-47.016zm-73.776 0 .238-.137-10.787-6.232-110.666 63.894v1.805l110.666-63.893 7.662 4.426L505.899 95.7l-.237.138 158.258 91.371.08.046v-1.805L508.786 95.838zm92.219 0 .237-.137L553.722 4.643l-.389-.222-110.666 63.893v1.805L553.333 6.226l99.88 57.668L598.118 95.7l-.238.138 66.04 38.129.08.046v-1.805l-62.995-36.37z"/>
  </g>
  <g fill="#EC585D" fill-opacity=".5" clip-path="url(#c)">
    <path d="M637.901 383.362 664 368.29v-1.8l-29.23 16.872zm-58.464 0h3.131L664 336.346v-1.806l-84.325 48.684zm21.573 0 62.99-36.37v-1.806l-66.12 38.176zm55.334 0 7.656-4.42v-1.806l-10.787 6.226zm-36.891 0L664 357.644v-1.805l-47.672 27.523zm-58.459 0h3.126L664 325.694v-1.805l-102.767 59.335zm-33.765-191.681h-3.13l-81.432 47.016v1.806l84.324-48.685zm18.443 0h-3.125l-99.88 57.662v1.806l102.767-59.331zm-76.906 0-26.099 15.072v1.806l29.229-16.878zm18.447 0-44.546 25.718v1.806l47.671-27.524zm-36.89 0-7.656 4.421v1.805l10.787-6.226zm55.333 0-62.989 36.365v1.805l66.12-38.17zm-7.404 38.026 65.869-38.026h-3.131l-63.517 36.672zm-10.004 5.164 9.752 5.632 84.325-48.685.238-.137h-3.131L498 238.697l-8.966-5.173zm-26.881 14.622-.785 1.353 37.027 21.377.391.23 139.658-80.635.238-.137h-3.13L498 270.646l-36.496-21.074zm18.442-10.646-.784 1.353L498 251.155l102.767-59.337.238-.137h-3.125L498 249.349l-18.053-10.423zm-10.002 6.677L498 261.8l121.216-69.982.238-.137h-3.131L498 259.995l-27.415-15.826zm-17.664 9.292-.785 1.353 46.253 26.707.39.222 158.1-91.28.237-.137h-3.125L498 281.293l-45.72-26.398z"/>
  </g>
  <g fill="#EC585D" fill-opacity=".5" clip-path="url(#d)">
    <path d="M527.23 383.362h-3.126l-81.437 47.018v1.805l84.325-48.686zm-76.904 0-7.659 4.422v1.805l10.785-6.227zm95.348 0h-3.126l-99.881 57.667v1.805l102.77-59.335zm-58.459 0-44.548 25.72v1.805l47.674-27.525zm18.445 0-62.993 36.369v1.805l66.119-38.174zm-36.889 0-26.104 15.071v1.805l29.23-16.876zm73.778 191.681h3.126l54.158-31.271.138-.08-.781-1.353zm48.203-36.674-.781-1.353-65.868 38.027h3.126l63.386-36.594zm-36.89-21.297-.782-1.354-102.515 59.187-.239.138h3.127l100.271-57.892zm18.442 10.651-.781-1.353-84.067 48.535-.239.138h3.126l81.824-47.24zm9.224 5.323-.781-1.353-75.087 43.35h3.126l72.605-41.917zm-18.442-10.652-.782-1.354-93.296 53.865-.239.138h3.126l91.053-52.569zm-109.634-75.138 110.428-63.757.238-.137h-3.126l-110.427 63.756-.239.138 157.95 91.193.391.225L664 506.727v-1.805l-55.333 31.948zm18.444 0 110.428-63.757.238-.137h-3.125l-110.428 63.756-.238.138L608.276 527.8l.391.225L664 496.078v-1.804l-55.333 31.947zm18.445 0 110.428-63.757.238-.137h-3.126l-110.427 63.756-.239.138 121.061 69.895.391.225L664 485.429v-1.805l-55.333 31.948zm55.333 0 110.428-63.757.238-.137h-3.126l-110.427 63.756-.238.138 65.727 37.948.391.225L664 453.482v-1.804l-55.333 31.946zm-18.444 0 110.428-63.757.238-.137h-3.126l-110.428 63.756-.238.138 84.172 48.597.391.225L664 464.131v-1.804l-55.333 31.947zm-18.445 0 110.429-63.757.237-.137h-3.125l-110.428 63.756-.238.138 102.616 59.246.391.225L664 474.78v-1.805l-55.333 31.948z"/>
  </g>
  <g fill="#EC585D" fill-opacity=".5" clip-path="url(#e)">
    <path d="M358.103 383.713h3.127l81.437 47.018v1.805l-84.326-48.686zm76.904 0 7.66 4.422v1.805l-10.786-6.227zm-95.348 0h3.126l99.882 57.667v1.805l-102.77-59.335zm58.46 0 44.548 25.72v1.805l-47.675-27.525zm-18.445 0 62.993 36.369v1.805l-66.119-38.174zm36.889 0 26.104 15.071v1.805l-29.23-16.876zm-73.779 191.681h-3.126L285.5 544.123l-.137-.08.781-1.353zm-48.203-36.674.781-1.353 65.869 38.027h-3.126L294.719 538.8zm36.891-21.297.781-1.354 102.515 59.187.239.138h-3.126l-100.272-57.892zm-18.443 10.651.782-1.353 84.066 48.535.239.138h-3.126l-81.823-47.24zm-9.224 5.323.781-1.353 75.088 43.35h-3.127l-72.604-41.918zm18.443-10.652.781-1.354 93.296 53.865.239.138h-3.126l-91.053-52.569zm109.633-75.138L321.453 383.85l-.238-.137h3.126l110.428 63.756.238.138-157.95 91.193-.39.225-55.334-31.947v-1.805l55.334 31.948zm-18.444 0L303.009 383.85l-.238-.137h3.126l110.427 63.756.239.138-139.506 80.544-.39.225-55.334-31.947v-1.804l55.334 31.947zm-18.444 0L284.564 383.85l-.237-.137h3.125l110.428 63.756.238.138-121.061 69.895-.39.225-55.333-31.947v-1.805l55.333 31.948zm-55.334 0L229.231 383.85l-.238-.137h3.126l110.428 63.756.238.138-65.728 37.948-.39.225-55.333-31.947v-1.804l55.333 31.946zm18.445 0L247.676 383.85l-.238-.137h3.126l110.427 63.756.238.138-84.172 48.597-.39.225-55.333-31.947v-1.804l55.333 31.947zm18.444 0L266.12 383.85l-.238-.137h3.126l110.427 63.756.239.138-102.617 59.246-.39.225-55.333-31.947v-1.805l55.333 31.948z"/>
  </g>
  <g fill="#EC585D" fill-opacity=".5" clip-path="url(#f)">
    <path d="M99.882 575.043h3.127l54.158-31.271.137-.08-.781-1.353zm48.203-36.674-.78-1.353-65.87 38.027h3.127l63.386-36.594zm-18.448-10.646-.781-1.353-84.067 48.535-.238.138h3.125l81.824-47.24zm9.224 5.323-.78-1.354-75.088 43.351h3.126l72.605-41.917zm-27.666-15.974-.781-1.354L7.899 574.905l-.24.138h3.127l100.271-57.892zm9.224 5.322-.781-1.354-93.296 53.865-.24.138h3.127l91.052-52.569zm-35.856-75.138L194.99 383.5l.239-.138h-3.126L81.676 447.118l-.239.138 84.173 48.597.39.225 55.333-31.947v-1.804L166 494.274zm-18.445 0 110.43-63.756.239-.138h-3.127L63.231 447.118l-.238.138 102.616 59.246.391.225 55.333-31.947v-1.804L166 504.923zm36.889 0L213.436 383.5l.238-.138h-3.126L100.12 447.118l-.238.138 65.728 37.948.39.225 55.333-31.946v-1.805L166 483.625zm-92.222 0L121.213 383.5l.239-.138h-3.126L7.898 447.118l-.238.138 157.949 91.193.391.225 55.333-31.947v-1.805L166 536.87zm18.445 0L139.658 383.5l.239-.138h-3.126L26.343 447.118l-.24.138L165.61 527.8l.391.225 55.333-31.947v-1.804L166 526.221zm18.444 0L158.102 383.5l.239-.138h-3.126L44.787 447.118l-.239.138 121.061 69.895.391.225 55.333-31.947v-1.805L166 515.572z"/>
  </g>
  <g fill="#EC585D" fill-opacity=".5" clip-path="url(#g)">
    <path d="M358.103 192.032h3.127l81.437 47.018v1.805l-84.326-48.686zm76.904 0 7.66 4.422v1.805l-10.786-6.227zm-95.348 0h3.126l99.882 57.667v1.805l-102.77-59.335zm58.46 0 44.548 25.72v1.805l-47.675-27.525zm-18.445 0 62.993 36.369v1.805l-66.119-38.174zm36.889 0 26.104 15.071v1.805l-29.23-16.876zm-73.779 191.681h-3.126L285.5 352.442l-.137-.08.781-1.353zm-48.203-36.674.781-1.353 65.869 38.027h-3.126l-63.386-36.594zm36.891-21.297.781-1.354 102.515 59.187.239.138h-3.126l-100.272-57.892zm-18.443 10.651.782-1.353 84.066 48.535.239.138h-3.126l-81.823-47.24zm-9.224 5.323.781-1.353 75.088 43.35h-3.127l-72.604-41.918zm18.443-10.652.781-1.354 93.296 53.865.239.138h-3.126l-91.053-52.569zm109.633-75.138-110.428-63.757-.238-.137h3.126l110.428 63.756.238.138-157.95 91.193-.39.225-55.334-31.947v-1.805l55.334 31.948zm-18.444 0-110.428-63.757-.238-.137h3.126l110.427 63.756.239.138-139.506 80.544-.39.225-55.334-31.947v-1.805l55.334 31.948zm-18.444 0-110.429-63.757-.237-.137h3.125l110.428 63.756.238.138-121.061 69.895-.39.225-55.333-31.947v-1.805l55.333 31.948zm-55.334 0-110.428-63.757-.238-.137h3.126l110.428 63.756.238.138-65.728 37.948-.39.225-55.333-31.947v-1.804l55.333 31.946zm18.445 0-110.428-63.757-.238-.137h3.126l110.427 63.756.238.138-84.172 48.597-.39.225-55.333-31.947v-1.804l55.333 31.946zm18.444 0L266.12 192.169l-.238-.137h3.126l110.427 63.756.239.138-102.617 59.246-.39.225-55.333-31.947v-1.805l55.333 31.948z"/>
  </g>
  <defs>
    <clipPath id="a">
      <path fill="#fff" d="M221.333 0h221.333v191.681H221.333z"/>
    </clipPath>
    <clipPath id="b">
      <path fill="#fff" d="M442.667 0H664v191.681H442.667z"/>
    </clipPath>
    <clipPath id="c">
      <path fill="#fff" d="M442.667 191.681H664v191.681H442.667z"/>
    </clipPath>
    <clipPath id="d">
      <path fill="#fff" d="M442.667 383.362H664v191.681H442.667z"/>
    </clipPath>
    <clipPath id="e">
      <path fill="#fff" d="M221.333 383.713h221.333v191.681H221.333z"/>
    </clipPath>
    <clipPath id="f">
      <path fill="#fff" d="M0 383.362h221.333v191.681H0z"/>
    </clipPath>
    <clipPath id="g">
      <path fill="#fff" d="M221.333 192.032h221.333v191.681H221.333z"/>
    </clipPath>
  </defs>
</svg>

<svg width="664" height="576" viewBox="0 0 664 576" fill="none" xmlns="http://www.w3.org/2000/svg">
<g clip-path="url(#clip0)">
<path d="M247.437 191.681H250.563L442.667 80.7694V78.9647L247.675 191.543L247.437 191.681ZM229.231 191.543L442.667 68.3157V70.1203L232.119 191.681H228.993L229.231 191.543ZM284.564 191.543L442.667 100.262V102.066L287.451 191.681H284.326L284.564 191.543ZM266.12 191.543L442.667 89.6127V91.4174L269.007 191.681H265.882L266.12 191.543ZM303.009 191.543L442.667 110.911V112.715L305.896 191.681H302.77L303.009 191.543ZM321.453 191.543L442.667 121.559V123.363L324.34 191.681H321.215L321.453 191.543Z" fill="#EC585D" fill-opacity="0.5"/>
</g>
<g clip-path="url(#clip1)">
<path d="M442.804 165.87L487.523 191.681H490.643L442.804 164.059V165.87ZM442.804 155.218L505.965 191.681H509.091L442.804 153.413V155.218ZM442.804 176.516L469.075 191.681H472.201L442.804 174.711V176.516ZM442.804 187.168L450.626 191.681H453.757L442.804 185.357V187.168ZM545.982 191.681L443.043 132.253L442.804 132.115V133.92L542.856 191.681H545.982ZM442.804 144.572L524.408 191.681H527.533L443.043 142.899L442.804 142.761V144.572Z" fill="#EC585D" fill-opacity="0.5"/>
<path d="M600.767 64.0311L601.005 63.8936L553.722 36.5925L553.333 36.3701L442.667 100.258V102.063L553.333 38.1701L597.88 63.8935L542.785 95.7001L542.547 95.8376L663.92 165.911L664 165.957V164.152L545.672 95.8376L600.767 64.0311ZM619.215 64.0311L619.453 63.8936L553.722 25.9408L553.333 25.7184L442.667 89.6118V91.4172L553.333 27.5237L616.328 63.8936L561.233 95.7001L560.995 95.8376L663.92 155.265L664 155.311V153.506L564.12 95.8376L619.215 64.0311ZM582.325 64.0311L582.562 63.8936L553.333 47.0161L442.667 110.909V112.715L553.333 48.8218L579.438 63.8936L524.342 95.7001L524.104 95.8376L663.92 176.563L664 176.609V174.804L527.229 95.8376L582.325 64.0311ZM637.658 64.0311L637.896 63.8936L553.722 15.2944L553.333 15.0725L442.667 78.9602V80.7656L553.333 16.872L634.771 63.8936L579.675 95.7001L579.438 95.8376L663.92 144.614L664 144.66V142.854L582.562 95.8376L637.658 64.0311ZM563.882 64.0311L564.12 63.8936L553.333 57.6621L442.667 121.556V123.361L553.333 59.4677L560.995 63.8936L505.899 95.7001L505.662 95.8376L663.92 187.209L664 187.255V185.45L508.786 95.8376L563.882 64.0311ZM656.101 64.0311L656.338 63.8936L553.722 4.64273L553.333 4.4209L442.667 68.3137V70.1191L553.333 6.22607L653.213 63.8936L598.118 95.7001L597.88 95.8376L663.92 133.967L664 134.013V132.208L601.005 95.8376L656.101 64.0311Z" fill="#EC585D" fill-opacity="0.5"/>
</g>
<g clip-path="url(#clip2)">
<path d="M637.901 383.362L664 368.29V366.49L634.77 383.362H637.901ZM579.437 383.362H582.568L664 336.346V334.54L579.675 383.224L579.437 383.362ZM601.01 383.362L664 346.992V345.186L597.88 383.362H601.01ZM656.344 383.362L664 378.942V377.136L653.213 383.362H656.344ZM619.453 383.362L664 357.644V355.839L616.328 383.362H619.453ZM560.994 383.362H564.12L664 325.694V323.889L561.233 383.224L560.994 383.362Z" fill="#EC585D" fill-opacity="0.5"/>
<path d="M527.229 191.681H524.099L442.667 238.697V240.503L526.991 191.818L527.229 191.681ZM545.672 191.681H542.547L442.667 249.343V251.149L545.434 191.818L545.672 191.681ZM468.766 191.681L442.667 206.753V208.559L471.896 191.681H468.766ZM487.213 191.681L442.667 217.399V219.205L490.338 191.681H487.213ZM450.323 191.681L442.667 196.102V197.907L453.454 191.681H450.323ZM505.656 191.681L442.667 228.046V229.851L508.787 191.681H505.656Z" fill="#EC585D" fill-opacity="0.5"/>
<path d="M498.252 229.707L564.121 191.681H560.99L497.473 228.353L498.252 229.707ZM488.248 234.871L498 240.503L582.325 191.818L582.563 191.681H579.432L498 238.697L489.034 233.524L488.248 234.871ZM461.367 249.493L460.582 250.846L497.609 272.223L498 272.453L637.658 191.818L637.896 191.681H634.766L498 270.646L461.504 249.572L461.367 249.493ZM479.809 238.847L479.025 240.2L498 251.155L600.767 191.818L601.005 191.681H597.88L498 249.349L479.947 238.926L479.809 238.847ZM469.807 245.524L498 261.8L619.216 191.818L619.454 191.681H616.323L498 259.995L470.585 244.169L469.807 245.524ZM452.143 254.816L451.358 256.169L497.611 282.876L498.001 283.098L656.101 191.818L656.338 191.681H653.213L498 281.293L452.28 254.895L452.143 254.816Z" fill="#EC585D" fill-opacity="0.5"/>
</g>
<g clip-path="url(#clip3)">
<path d="M527.23 383.362H524.104L442.667 430.38V432.185L526.992 383.499L527.23 383.362ZM450.326 383.362L442.667 387.784V389.589L453.452 383.362H450.326ZM545.674 383.362H542.548L442.667 441.029V442.834L545.437 383.499L545.674 383.362ZM487.215 383.362L442.667 409.082V410.887L490.341 383.362H487.215ZM505.66 383.362L442.667 419.731V421.536L508.786 383.362H505.66ZM468.771 383.362L442.667 398.433V400.238L471.897 383.362H468.771Z" fill="#EC585D" fill-opacity="0.5"/>
<path d="M542.549 575.043H545.675L599.833 543.772L599.971 543.692L599.19 542.339L542.549 575.043ZM590.752 538.369L589.971 537.016L524.103 575.043H527.229L590.615 538.449L590.752 538.369ZM553.862 517.072L553.08 515.718L450.565 574.905L450.326 575.043H453.453L553.724 517.151L553.862 517.072ZM572.304 527.723L571.523 526.37L487.456 574.905L487.217 575.043H490.343L572.167 527.803L572.304 527.723ZM581.528 533.046L580.747 531.693L505.66 575.043H508.786L581.391 533.126L581.528 533.046ZM563.086 522.394L562.304 521.04L469.008 574.905L468.769 575.043H471.895L562.948 522.474L563.086 522.394Z" fill="#EC585D" fill-opacity="0.5"/>
<path d="M453.452 447.256L563.88 383.499L564.118 383.362H560.992L450.565 447.118L450.326 447.256L608.276 538.449L608.667 538.674L664 506.727V504.922L608.667 536.87L453.452 447.256ZM471.896 447.256L582.324 383.499L582.562 383.362H579.437L469.009 447.118L468.771 447.256L608.276 527.8L608.667 528.025L664 496.078V494.274L608.667 526.221L471.896 447.256ZM490.341 447.256L600.769 383.499L601.007 383.362H597.881L487.454 447.118L487.215 447.256L608.276 517.151L608.667 517.376L664 485.429V483.624L608.667 515.572L490.341 447.256ZM545.674 447.256L656.102 383.499L656.34 383.362H653.214L542.787 447.118L542.549 447.256L608.276 485.204L608.667 485.429L664 453.482V451.678L608.667 483.624L545.674 447.256ZM527.23 447.256L637.658 383.499L637.896 383.362H634.77L524.342 447.118L524.104 447.256L608.276 495.853L608.667 496.078L664 464.131V462.327L608.667 494.274L527.23 447.256ZM508.785 447.256L619.214 383.499L619.451 383.362H616.326L505.898 447.118L505.66 447.256L608.276 506.502L608.667 506.727L664 474.78V472.975L608.667 504.923L508.785 447.256Z" fill="#EC585D" fill-opacity="0.5"/>
</g>
<g clip-path="url(#clip4)">
<path d="M358.103 383.713H361.23L442.667 430.731V432.536L358.341 383.85L358.103 383.713ZM435.007 383.713L442.667 388.135V389.94L431.881 383.713H435.007ZM339.659 383.713H342.785L442.667 441.38V443.185L339.897 383.85L339.659 383.713ZM398.119 383.713L442.667 409.433V411.238L394.992 383.713H398.119ZM379.674 383.713L442.667 420.082V421.887L376.548 383.713H379.674ZM416.563 383.713L442.667 398.784V400.589L413.437 383.713H416.563Z" fill="#EC585D" fill-opacity="0.5"/>
<path d="M342.784 575.394H339.658L285.5 544.123L285.363 544.043L286.144 542.69L342.784 575.394ZM294.581 538.72L295.362 537.367L361.231 575.394H358.105L294.719 538.8L294.581 538.72ZM331.472 517.423L332.253 516.069L434.768 575.256L435.007 575.394H431.881L331.609 517.502L331.472 517.423ZM313.029 528.074L313.811 526.721L397.877 575.256L398.116 575.394H394.99L313.167 528.154L313.029 528.074ZM303.805 533.397L304.586 532.044L379.674 575.394H376.547L303.943 533.476L303.805 533.397ZM322.248 522.745L323.029 521.391L416.325 575.256L416.564 575.394H413.438L322.385 522.825L322.248 522.745Z" fill="#EC585D" fill-opacity="0.5"/>
<path d="M431.881 447.607L321.453 383.85L321.215 383.713H324.341L434.769 447.469L435.007 447.607L277.057 538.8L276.667 539.025L221.333 507.078V505.273L276.667 537.221L431.881 447.607ZM413.437 447.607L303.009 383.85L302.771 383.713H305.897L416.324 447.469L416.563 447.607L277.057 528.151L276.667 528.376L221.333 496.429V494.625L276.667 526.572L413.437 447.607ZM394.993 447.607L284.564 383.85L284.327 383.713H287.452L397.88 447.469L398.118 447.607L277.057 517.502L276.667 517.727L221.334 485.78V483.975L276.667 515.923L394.993 447.607ZM339.659 447.607L229.231 383.85L228.993 383.713H232.119L342.547 447.469L342.785 447.607L277.057 485.555L276.667 485.78L221.334 453.833V452.029L276.667 483.975L339.659 447.607ZM358.104 447.607L247.676 383.85L247.438 383.713H250.564L360.991 447.469L361.229 447.607L277.057 496.204L276.667 496.429L221.334 464.482V462.678L276.667 494.625L358.104 447.607ZM376.548 447.607L266.12 383.85L265.882 383.713H269.008L379.435 447.469L379.674 447.607L277.057 506.853L276.667 507.078L221.334 475.131V473.326L276.667 505.274L376.548 447.607Z" fill="#EC585D" fill-opacity="0.5"/>
</g>
<g clip-path="url(#clip5)">
<path d="M99.8823 575.043H103.009L157.167 543.772L157.304 543.692L156.523 542.339L99.8823 575.043ZM148.085 538.369L147.305 537.016L81.4359 575.043H84.5618L147.948 538.449L148.085 538.369ZM129.637 527.723L128.856 526.37L44.7894 574.905L44.5506 575.043H47.6764L129.5 527.803L129.637 527.723ZM138.861 533.046L138.081 531.692L62.9927 575.043H66.1191L138.724 533.126L138.861 533.046ZM111.195 517.072L110.414 515.718L7.89886 574.905L7.65991 575.043H10.7858L111.057 517.151L111.195 517.072ZM120.419 522.394L119.638 521.04L26.3416 574.905L26.1027 575.043H29.2285L120.281 522.474L120.419 522.394Z" fill="#EC585D" fill-opacity="0.5"/>
<path d="M84.5628 447.256L194.991 383.5L195.23 383.362H192.104L81.6759 447.118L81.437 447.256L165.61 495.853L166 496.078L221.333 464.131V462.327L166 494.274L84.5628 447.256ZM66.1185 447.256L176.547 383.5L176.786 383.362H173.659L63.2311 447.118L62.9932 447.256L165.609 506.502L166 506.727L221.333 474.78V472.976L166 504.923L66.1185 447.256ZM103.007 447.256L213.436 383.5L213.674 383.362H210.548L100.12 447.118L99.8817 447.256L165.61 485.204L166 485.429L221.333 453.483V451.678L166 483.625L103.007 447.256ZM10.7852 447.256L121.213 383.5L121.452 383.362H118.326L7.89778 447.118L7.65991 447.256L165.609 538.449L166 538.674L221.333 506.727V504.922L166 536.87L10.7852 447.256ZM29.2295 447.256L139.658 383.5L139.897 383.362H136.771L26.3426 447.118L26.1037 447.256L165.609 527.8L166 528.025L221.333 496.078V494.274L166 526.221L29.2295 447.256ZM47.6737 447.256L158.102 383.5L158.341 383.362H155.215L44.7868 447.118L44.5484 447.256L165.609 517.151L166 517.376L221.333 485.429V483.624L166 515.572L47.6737 447.256Z" fill="#EC585D" fill-opacity="0.5"/>
</g>
<g clip-path="url(#clip6)">
<path d="M358.103 192.032H361.23L442.667 239.05V240.855L358.341 192.169L358.103 192.032ZM435.007 192.032L442.667 196.454V198.259L431.881 192.032H435.007ZM339.659 192.032H342.785L442.667 249.699V251.504L339.897 192.169L339.659 192.032ZM398.119 192.032L442.667 217.752V219.557L394.992 192.032H398.119ZM379.674 192.032L442.667 228.401V230.206L376.548 192.032H379.674ZM416.563 192.032L442.667 207.103V208.908L413.437 192.032H416.563Z" fill="#EC585D" fill-opacity="0.5"/>
<path d="M342.784 383.713H339.658L285.5 352.442L285.363 352.362L286.144 351.009L342.784 383.713ZM294.581 347.039L295.362 345.686L361.231 383.713H358.105L294.719 347.119L294.581 347.039ZM331.472 325.742L332.253 324.388L434.768 383.575L435.007 383.713H431.881L331.609 325.821L331.472 325.742ZM313.029 336.393L313.811 335.04L397.877 383.575L398.116 383.713H394.99L313.167 336.473L313.029 336.393ZM303.805 341.716L304.586 340.363L379.674 383.713H376.547L303.943 341.795L303.805 341.716ZM322.248 331.064L323.029 329.71L416.325 383.575L416.564 383.713H413.438L322.385 331.144L322.248 331.064Z" fill="#EC585D" fill-opacity="0.5"/>
<path d="M431.881 255.926L321.453 192.169L321.215 192.032H324.341L434.769 255.788L435.007 255.926L277.057 347.119L276.667 347.344L221.333 315.397V313.592L276.667 345.54L431.881 255.926ZM413.437 255.926L303.009 192.169L302.771 192.032H305.897L416.324 255.788L416.563 255.926L277.057 336.47L276.667 336.695L221.333 304.748V302.943L276.667 334.891L413.437 255.926ZM394.993 255.926L284.564 192.169L284.327 192.032H287.452L397.88 255.788L398.118 255.926L277.057 325.821L276.667 326.046L221.334 294.099V292.294L276.667 324.242L394.993 255.926ZM339.659 255.926L229.231 192.169L228.993 192.032H232.119L342.547 255.788L342.785 255.926L277.057 293.874L276.667 294.099L221.334 262.152V260.348L276.667 292.294L339.659 255.926ZM358.104 255.926L247.676 192.169L247.438 192.032H250.564L360.991 255.788L361.229 255.926L277.057 304.523L276.667 304.748L221.334 272.801V270.997L276.667 302.943L358.104 255.926ZM376.548 255.926L266.12 192.169L265.882 192.032H269.008L379.435 255.788L379.674 255.926L277.057 315.172L276.667 315.397L221.334 283.45V281.645L276.667 313.593L376.548 255.926Z" fill="#EC585D" fill-opacity="0.5"/>
</g>
<defs>
<clipPath id="clip0">
<rect width="221.333" height="191.681" fill="white" transform="translate(221.333)"/>
</clipPath>
<clipPath id="clip1">
<rect width="221.333" height="191.681" fill="white" transform="translate(442.667)"/>
</clipPath>
<clipPath id="clip2">
<rect width="221.333" height="191.681" fill="white" transform="translate(442.667 191.681)"/>
</clipPath>
<clipPath id="clip3">
<rect width="221.333" height="191.681" fill="white" transform="translate(442.667 383.362)"/>
</clipPath>
<clipPath id="clip4">
<rect width="221.333" height="191.681" fill="white" transform="translate(221.333 383.713)"/>
</clipPath>
<clipPath id="clip5">
<rect width="221.333" height="191.681" fill="white" transform="translate(0 383.362)"/>
</clipPath>
<clipPath id="clip6">
<rect width="221.333" height="191.681" fill="white" transform="translate(221.333 192.032)"/>
</clipPath>
</defs>
</svg>
